X: 2
T: The Sheep In The Boat
R: jig
M: 6/8
L: 1/8
K: Ddor
|: ADE FDE | ~E3 cde | dcA AGE | GED EDC || ADE F2 G | EDE c2 e | dcA AGE | GED D3 :||| A2 d dcd | ede c2 e | dcA AGE | GED EFG || Add dcd | ede cde | dcA AGE | GED DE/F/G || A2 d dcd | ede c2 e | dcA AGE | GED EDC || A,DE FED | ~E3 cde | dcA AGE | GED D3 ||


Tune 2576	Setting 15843

